src/assets/Dashbord-icon.svg

<svg width="24" height="24" viewBox="0 0 24 24" fill="none" xmlns="http://www.w3.org/2000/svg">
<path d="M9 3H4C3.44771 3 3 3.44771 3 4V9C3 9.5523 3.44771 10 4 10H9C9.5523 10 10 9.5523 10 9V4C10 3.44771 9.5523 3 9 3Z" stroke="#242426" stroke-width="1.5" stroke-linejoin="round"/>
<path d="M9 14H4C3.44771 14 3 14.4477 3 15V20C3 20.5523 3.44771 21 4 21H9C9.5523 21 10 20.5523 10 20V15C10 14.4477 9.5523 14 9 14Z" stroke="#242426" stroke-width="1.5" stroke-linejoin="round"/>
<path d="M20 3H15C14.4477 3 14 3.44771 14 4V9C14 9.5523 14.4477 10 15 10H20C20.5523 10 21 9.5523 21 9V4C21 3.44771 20.5523 3 20 3Z" stroke="#242426" stroke-width="1.5" stroke-linejoin="round"/>
<path d="M20 14H15C14.4477 14 14 14.4477 14 15V20C14 20.5523 14.4477 21 15 21H20C20.5523 21 21 20.5523 21 20V15C21 14.4477 20.5523 14 20 14Z" stroke="#242426" stroke-width="1.5" stroke-linejoin="round"/>
</svg>

<svg xmlns="http://www.w3.org/2000/svg" width="24" height="24" fill="none"><path stroke="#242426" stroke-linejoin="round" stroke-width="1.5" d="M9 3H4a1 1 0 0 0-1 1v5a1 1 0 0 0 1 1h5a1 1 0 0 0 1-1V4a1 1 0 0 0-1-1ZM9 14H4a1 1 0 0 0-1 1v5a1 1 0 0 0 1 1h5a1 1 0 0 0 1-1v-5a1 1 0 0 0-1-1ZM20 3h-5a1 1 0 0 0-1 1v5a1 1 0 0 0 1 1h5a1 1 0 0 0 1-1V4a1 1 0 0 0-1-1ZM20 14h-5a1 1 0 0 0-1 1v5a1 1 0 0 0 1 1h5a1 1 0 0 0 1-1v-5a1 1 0 0 0-1-1Z"/></svg>
